Papirus/32x32/apps/google-agenda.svg

<svg xmlns="http://www.w3.org/2000/svg" width="32" height="32" version="1">
 <defs>
  <clipPath id="clipPath4483" clipPathUnits="userSpaceOnUse">
   <path fill="#fecd38" d="m91.5 254c-0.831 0-1.5 0.669-1.5 1.5v25c0 0.831 0.669 1.5 1.5 1.5h16.5l10-10v-16.5c0-0.831-0.669-1.5-1.5-1.5z"/>
  </clipPath>
 </defs>
 <path d="M 4,3 C 4,3 2,3 2,5 l 0,24 c 0,2 2,2 2,2 L 20,31 30,21 30,5 C 30,3 28,3 28,3 Z" style="opacity:0.2"/>
 <path d="m4 2s-2 0-2 2v24c0 2 2 2 2 2h16l10-10v-16c0-2-2-2-2-2z" style="fill:#4384f1"/>
 <path d="m 8.5566405,10.835525 c -0.6789762,0.02022 -1.2432797,0.08008 -1.5566406,0.08008 l 0,2.000001 c 0.9766782,0 2.3501312,-0.178561 3.3984381,0.03906 0.524151,0.108815 0.91433,0.295101 1.164062,0.558594 0.249732,0.263496 0.4375,0.632665 0.4375,1.402344 0,0.813063 -0.172097,1.243281 -0.357422,1.492188 -0.185324,0.248906 -0.419644,0.385009 -0.791016,0.480468 -0.506183,0.130113 -1.2476963,0.05457 -1.943359,0.01953 -0.2774198,-0.01152 -0.6525464,-0.07205 -0.8515625,-0.0625 -0.1183278,0.0057 -0.2190373,0.01299 -0.3164062,0.02539 -0.048685,0.0062 -0.095896,0.01445 -0.15625,0.02734 -0.060355,0.0129 -0.100482,-0.008 -0.3261719,0.121094 -0.028211,0.01614 -0.05996,0.03673 -0.097656,0.06445 -0.037696,0.02772 -0.1304035,0.112807 -0.1308593,0.113281 -4.558e-4,4.74e-4 -0.1559926,0.212423 -0.15625,0.212891 -2.574e-4,4.68e-4 -0.1171302,0.358914 -0.1171875,0.359375 -5.73e-5,4.61e-4 0.040871,0.429234 0.041016,0.429687 1.446e-4,4.54e-4 0.1656673,0.312055 0.1660156,0.3125 3.483e-4,4.45e-4 0.1192548,0.129996 0.1699219,0.169922 0.050667,0.03993 0.093307,0.06878 0.1308594,0.08984 0.30042,0.168499 0.332099,0.118222 0.3984375,0.126953 0.1326762,0.01748 0.2158058,0.01758 0.3378906,0.01758 0.1545833,0 0.592773,-0.04184 0.8261719,-0.02344 0.2976003,0.01328 0.5328134,-1.52e-4 0.890625,0.06641 0.6284835,0.116902 1.2620075,0.345956 1.6640625,0.658203 C 11.782914,19.929022 12,20.241665 12,20.915604 c 0,0.726295 -0.194809,1.048466 -0.523438,1.333984 -0.328628,0.285519 -0.878039,0.504646 -1.5468746,0.621094 -1.3376714,0.232896 -2.9530093,0.04492 -3.9296875,0.04492 l 0,2 c 0.6267218,0 2.5119584,0.232466 4.2734381,-0.07422 0.880739,-0.153342 1.780331,-0.444892 2.513671,-1.082031 C 13.52045,23.122214 14,22.110147 14,20.915602 c 0,-1.246901 -0.606602,-2.268496 -1.392578,-2.878906 -0.0068,-0.0053 -0.01468,-0.0045 -0.02148,-0.0098 0.215783,-0.166096 0.485667,-0.189475 0.660156,-0.423828 C 13.747734,16.929385 14,16.023379 14,14.915602 14,13.764441 13.638409,12.797422 13.013672,12.138258 12.388935,11.479096 11.580109,11.156659 10.804688,10.995681 10.029265,10.834705 9.2356167,10.8153 8.5566405,10.835525 Z m 12.4335935,0.08008 -2.990234,1 0,2.000001 3,-1 0.0098,10 -3.0098,0 0,2 8,0 0,-2 -3,0 0,-12.000001 z" style="opacity:0.2"/>
 <path style="fill:#ffffff" d="m 8.5566405,9.8355256 c -0.6789762,0.020225 -1.2432797,0.080078 -1.5566406,0.080078 l 0,2.0000004 c 0.9766782,0 2.3501312,-0.178561 3.3984381,0.03906 0.524151,0.108815 0.91433,0.295101 1.164062,0.558594 0.249732,0.263496 0.4375,0.632665 0.4375,1.402344 0,0.813063 -0.172097,1.243281 -0.357422,1.492188 -0.185324,0.248906 -0.419644,0.385009 -0.791016,0.480468 -0.506183,0.130113 -1.2476963,0.05457 -1.943359,0.01953 -0.2774198,-0.01152 -0.6525464,-0.07205 -0.8515625,-0.0625 -0.1183278,0.0057 -0.2190373,0.01299 -0.3164062,0.02539 -0.048685,0.0062 -0.095896,0.01445 -0.15625,0.02734 -0.060355,0.0129 -0.100482,-0.008 -0.3261719,0.121094 -0.028211,0.01614 -0.05996,0.03673 -0.097656,0.06445 -0.037696,0.02772 -0.1304035,0.112807 -0.1308593,0.113281 -4.558e-4,4.74e-4 -0.1559926,0.212423 -0.15625,0.212891 -2.574e-4,4.68e-4 -0.1171302,0.358914 -0.1171875,0.359375 -5.73e-5,4.61e-4 0.040871,0.429234 0.041016,0.429687 1.446e-4,4.54e-4 0.1656673,0.312055 0.1660156,0.3125 3.483e-4,4.45e-4 0.1192548,0.129996 0.1699219,0.169922 0.050667,0.03993 0.093307,0.06878 0.1308594,0.08984 0.30042,0.168499 0.332099,0.118222 0.3984375,0.126953 0.1326762,0.01748 0.2158058,0.01758 0.3378906,0.01758 0.1545833,0 0.592773,-0.04184 0.8261719,-0.02344 0.2976003,0.01328 0.5328134,-1.52e-4 0.890625,0.06641 0.6284835,0.116902 1.2620075,0.345956 1.6640625,0.658203 C 11.782914,18.929022 12,19.241665 12,19.915604 c 0,0.726295 -0.194809,1.048466 -0.523438,1.333984 -0.328628,0.285519 -0.878039,0.504646 -1.5468746,0.621094 -1.3376714,0.232896 -2.9530093,0.04492 -3.9296875,0.04492 l 0,2 c 0.6267218,0 2.5119584,0.232466 4.2734381,-0.07422 0.880739,-0.153342 1.780331,-0.444892 2.513671,-1.082031 C 13.52045,22.122214 14,21.110147 14,19.915602 c 0,-1.246901 -0.606602,-2.268496 -1.392578,-2.878906 -0.0068,-0.0053 -0.01468,-0.0045 -0.02148,-0.0098 0.215783,-0.166096 0.485667,-0.189475 0.660156,-0.423828 C 13.747734,15.929385 14,15.023379 14,13.915602 14,12.764441 13.638409,11.797422 13.013672,11.138258 12.388935,10.479096 11.580109,10.156659 10.804688,9.9956816 10.029265,9.8347056 9.2356167,9.8153006 8.5566405,9.8355256 Z M 20.990234,9.9156056 18,10.915605 l 0,2.000001 3,-1 0.0098,10 -3.0098,0 0,2 8,0 0,-2 -3,0 0,-12.0000004 z"/>
 <path opacity=".2" d="m118 272h-8.5c-0.82843 0-1.5 0.67158-1.5 1.5v8.5z" clip-path="url(#clipPath4483)" transform="translate(-88,-252)"/>
 <path d="m30 20h-8.5c-0.828 0-1.5 0.672-1.5 1.5v8.5z" style="fill:#9bcdff"/>
 <path fill="#fff" opacity=".1" d="m21.5 20c-0.828 0-1.5 0.672-1.5 1.5v1c0-0.828 0.672-1.5 1.5-1.5h7.5l1-1h-8.5z"/>
 <circle style="opacity:0.4;fill-rule:evenodd" cx="7.5" cy="5.5" r="1.5"/>
 <path style="fill:#ffffff;opacity:0.2" d="M 4 2 C 4 2 2 2 2 4 L 2 5 C 2 3 4 3 4 3 L 28 3 C 28 3 30 3 30 5 L 30 4 C 30 2 28 2 28 2 L 4 2 z"/>
 <circle cx="24.5" cy="5.5" r="1.5" style="opacity:0.4;fill-rule:evenodd"/>
</svg>

<svg xmlns="http://www.w3.org/2000/svg" width="32" height="32" version="1">
 <path style="opacity:0.2" d="M 4,3 C 4,3 2,3 2,5 V 29 C 2,31 4,31 4,31 H 20 L 30,21 V 5 C 30,3 28,3 28,3 Z"/>
 <path style="fill:#4384f1" d="M 4,2 C 4,2 2,2 2,4 V 28 C 2,30 4,30 4,30 H 20 L 30,20 V 4 C 30,2 28,2 28,2 Z"/>
 <path style="opacity:0.2" d="M 8.5566,10.836 C 7.8777,10.856 7.3134,10.916 7,10.916 V 12.916 C 7.9767,12.916 9.3501,12.737 10.398,12.955 10.923,13.063 11.313,13.25 11.563,13.513 11.812,13.777 12,14.146 12,14.916 12,15.729 11.828,16.159 11.643,16.408 11.457,16.657 11.223,16.793 10.852,16.888 10.345,17.018 9.6039,16.943 8.9082,16.908 8.6308,16.896 8.2557,16.836 8.0566,16.845 7.9383,16.851 7.8376,16.858 7.7402,16.871 7.6915,16.877 7.6443,16.885 7.584,16.898 7.5236,16.911 7.4835,16.89 7.2578,17.019 7.2296,17.035 7.1979,17.056 7.1602,17.084 7.1225,17.111 7.0298,17.196 7.0293,17.197 7.0288,17.197 6.8733,17.409 6.873,17.41 6.8728,17.41 6.7559,17.769 6.7559,17.769 6.7558,17.77 6.7967,18.198 6.7969,18.199 6.797,18.199 6.9625,18.511 6.9629,18.511 6.9632,18.512 7.0821,18.641 7.1328,18.681 7.1835,18.721 7.2261,18.75 7.2637,18.771 7.5641,18.94 7.5958,18.889 7.6621,18.898 7.7948,18.915 7.8779,18.916 8,18.916 8.1546,18.916 8.5928,18.874 8.8262,18.892 9.1238,18.905 9.359,18.892 9.7168,18.959 10.345,19.075 10.979,19.305 11.381,19.617 11.783,19.929 12,20.242 12,20.916 12,21.642 11.805,21.964 11.477,22.25 11.148,22.535 10.599,22.754 9.9297,22.871 8.592,23.104 6.9767,22.916 6,22.916 V 24.916 C 6.6267,24.916 8.512,25.148 10.273,24.841 11.154,24.688 12.054,24.396 12.787,23.759 13.52,23.122 14,22.11 14,20.916 14,19.669 13.393,18.647 12.607,18.037 12.601,18.031 12.593,18.032 12.586,18.027 12.802,17.861 13.072,17.837 13.246,17.603 13.748,16.929 14,16.023 14,14.916 14,13.764 13.638,12.797 13.014,12.138 12.389,11.479 11.58,11.157 10.805,10.996 10.029,10.835 9.2356,10.815 8.5566,10.836 Z M 20.99,10.916 18,11.916 V 13.916 L 21,12.916 21.01,22.916 H 18 V 24.916 H 26 V 22.916 H 23 V 10.916 Z"/>
 <path style="fill:#ffffff" d="M 8.5566,9.8355 C 7.8777,9.8558 7.3134,9.9156 7,9.9156 V 11.916 C 7.9767,11.916 9.3501,11.737 10.398,11.955 10.923,12.063 11.313,12.25 11.563,12.513 11.812,12.777 12,13.146 12,13.916 12,14.729 11.828,15.159 11.643,15.408 11.457,15.657 11.223,15.793 10.852,15.888 10.345,16.018 9.6039,15.943 8.9082,15.908 8.6308,15.896 8.2557,15.836 8.0566,15.845 7.9383,15.851 7.8376,15.858 7.7402,15.871 7.6915,15.877 7.6443,15.885 7.584,15.898 7.5236,15.911 7.4835,15.89 7.2578,16.019 7.2296,16.035 7.1979,16.056 7.1602,16.084 7.1225,16.111 7.0298,16.196 7.0293,16.197 7.0288,16.197 6.8733,16.409 6.873,16.41 6.8728,16.41 6.7559,16.769 6.7559,16.769 6.7558,16.77 6.7967,17.198 6.7969,17.199 6.797,17.199 6.9625,17.511 6.9629,17.511 6.9632,17.512 7.0821,17.641 7.1328,17.681 7.1835,17.721 7.2261,17.75 7.2637,17.771 7.5641,17.94 7.5958,17.889 7.6621,17.898 7.7948,17.915 7.8779,17.916 8,17.916 8.1546,17.916 8.5928,17.874 8.8262,17.892 9.1238,17.905 9.359,17.892 9.7168,17.959 10.345,18.075 10.979,18.305 11.381,18.617 11.783,18.929 12,19.242 12,19.916 12,20.642 11.805,20.964 11.477,21.25 11.148,21.535 10.599,21.754 9.9297,21.871 8.592,22.104 6.9767,21.916 6,21.916 V 23.916 C 6.6267,23.916 8.512,24.148 10.273,23.841 11.154,23.688 12.054,23.396 12.787,22.759 13.52,22.122 14,21.11 14,19.916 14,18.669 13.393,17.647 12.607,17.037 12.601,17.031 12.593,17.032 12.586,17.027 12.802,16.861 13.072,16.837 13.246,16.603 13.748,15.929 14,15.023 14,13.916 14,12.764 13.638,11.797 13.014,11.138 12.389,10.479 11.58,10.157 10.805,9.9957 10.029,9.8347 9.2356,9.8153 8.5566,9.8355 Z M 20.99,9.9156 18,10.916 V 12.916 L 21,11.916 21.01,21.916 H 18 V 23.916 H 26 V 21.916 H 23 V 9.9156 Z"/>
 <path style="fill:#9bcdff" d="M 30,20 H 21.5 C 20.672,20 20,20.672 20,21.5 V 30 Z"/>
 <path style="opacity:0.1;fill:#ffffff" d="M 21.5,20 C 20.672,20 20,20.672 20,21.5 V 22.5 C 20,21.672 20.672,21 21.5,21 H 29 L 30,20 Z"/>
 <circle style="opacity:0.4" cx="7.5" cy="5.5" r="1.5"/>
 <path style="opacity:0.2;fill:#ffffff" d="M 4,2 C 4,2 2,2 2,4 V 5 C 2,3 4,3 4,3 H 28 C 28,3 30,3 30,5 V 4 C 30,2 28,2 28,2 Z"/>
 <circle style="opacity:0.4" cx="24.5" cy="5.5" r="1.5"/>
</svg>
